X: 1015
T: High Road To Linton, The
R: reel
M: 4/4
L: 1/8
K: Amaj
|:"A"Ac ce a2 ae|"D"fe fg a2 a2|"A"Ac ce a2 ae|"D"fa "A"ec "E"B2 "A"A2:|
|:"A"ce ea "D"fd df|"A"ec ce "E"d/c/2B B2|"A"ce ea "D"fd df|"D"fa "A"ec "E"B2 "A"A2:||

